images/other-seat5.svg

<svg width="61" height="76" viewBox="0 0 61 76" fill="none" xmlns="http://www.w3.org/2000/svg">
<path fill-rule="evenodd" clip-rule="evenodd" d="M16.354 36.6402C18.9673 35.1465 32.8921 35.1088 37.295 35.5264C39.8763 35.7701 41.6369 36.1384 43.9862 36.5967C45.2711 34.6534 46.44 28.2319 46.8547 25.1168C47.4609 20.5922 47.632 16.1662 47.7132 11.5284C47.8032 6.4817 46.1615 3.6567 43.119 1.69312C39.6704 -0.531497 35.2067 0.0891908 30.2818 0.0804895C25.4729 0.0717883 20.7771 -0.514095 17.3575 1.60901C14.3527 3.47687 12.5458 6.40629 12.5864 11.3689C12.6473 18.9071 13.5696 31.1845 16.354 36.6373V36.6402Z" fill="white"/>
<path fill-rule="evenodd" clip-rule="evenodd" d="M26.2965 37.9715C22.2562 38.2267 18.158 38.5748 14.9298 39.8335C12.1976 40.898 8.5315 43.5809 10.6459 47.7198C12.4442 51.238 16.4351 50.3939 21.1483 50.3852C24.536 50.3794 45.5814 50.6782 47.1215 50.0807C50.4599 48.7813 51.3822 44.3959 48.6036 41.7246C44.7837 38.0527 33.1328 37.5422 26.2965 37.9744V37.9715Z" fill="white"/>
<path fill-rule="evenodd" clip-rule="evenodd" d="M27.6973 58.0481C22.7608 58.2656 12.7254 57.8566 12.5949 62.8772C12.5398 65.0003 15.0051 66.349 16.6555 64.8408C17.3342 64.2201 16.96 63.9678 18.0506 63.6894C20.3361 63.1064 24.9071 62.9817 27.4479 62.9817C27.9816 63.1441 27.825 65.4412 30.1337 65.4876C31.958 65.5253 32.3438 63.9446 32.5671 63.4602C32.776 63.0078 32.5062 63.1847 32.9616 62.9817C35.6648 62.9817 39.7631 63.1006 42.2139 63.672C43.4089 63.9504 42.8897 63.991 43.5568 64.719C45.0041 66.2939 47.6841 65.2585 47.7247 63.031C47.8204 57.8972 37.7067 58.2192 32.7412 58.051L32.6425 53.0013H27.7002L27.6944 58.0452L27.6973 58.0481Z" fill="white"/>
<path fill-rule="evenodd" clip-rule="evenodd" d="M51.1241 40.5093C52.1886 41.565 52.8731 43.3024 52.8992 45.4777C55.3558 44.1174 57.0149 40.0075 57.5312 36.9128C57.7777 35.4423 57.6733 34.0327 57.8763 32.6347C58.4651 31.9502 59.0336 32.0517 59.7094 31.0307C60.1966 30.294 60.5041 29.2673 60.2459 28.1564C59.5701 25.256 56.9221 25.2821 54.5437 25.2821C50.7297 25.2792 48.5225 29.7342 52.4177 32.2286C53.0558 32.6376 52.8934 32.2257 52.9166 33.2466C52.9485 34.7607 52.6005 37.1361 52.0929 38.5109C51.8115 39.2708 51.333 39.9118 51.1299 40.5093H51.1241Z" fill="white"/>
<path fill-rule="evenodd" clip-rule="evenodd" d="M2.46964 32.4752C2.72487 35.6773 2.69007 37.6176 3.71101 40.3266C4.74646 43.0849 5.66879 43.7549 7.39164 45.4836C7.74259 43.1661 7.8644 41.7826 9.2827 40.492C7.91371 37.9454 7.22921 35.8107 7.49025 32.4694C11.2028 31.0018 10.817 25.3025 5.55567 25.2822L4.13737 25.2793C-0.306057 25.2764 -1.63735 30.4971 2.46964 32.4752Z" fill="white"/>
<path fill-rule="evenodd" clip-rule="evenodd" d="M29.5594 68.1967C24.3358 69.3887 26.4531 76.544 30.9487 75.4796C35.9142 74.302 33.852 67.2192 29.5594 68.1967Z" fill="white"/>
<path fill-rule="evenodd" clip-rule="evenodd" d="M45.3348 68.4345C40.4273 70.4416 43.5684 76.8979 47.8059 75.3346C49.3866 74.7516 50.8427 72.8141 50.0566 70.6504C49.4853 69.0784 47.6058 67.5064 45.3377 68.4345H45.3348Z" fill="white"/>
<path fill-rule="evenodd" clip-rule="evenodd" d="M12.5747 68.4345C7.71067 70.4039 10.7851 76.9153 15.0429 75.3375C16.6236 74.7516 18.0738 72.82 17.2907 70.6505C16.7194 69.0726 14.8457 67.5122 12.5747 68.4345Z" fill="white"/>
</svg>

<svg width="61" height="76" fill="none" xmlns="http://www.w3.org/2000/svg"><path fill-rule="evenodd" clip-rule="evenodd" d="M16.354 36.64c2.613-1.493 16.538-1.531 20.941-1.114 2.581.244 4.342.612 6.691 1.07 1.285-1.943 2.454-8.364 2.869-11.48.606-4.524.777-8.95.858-13.588.09-5.046-1.552-7.871-4.594-9.835C39.67-.53 35.207.09 30.282.08c-4.81-.008-9.505-.594-12.924 1.529-3.005 1.868-4.812 4.797-4.772 9.76.061 7.538.984 19.816 3.768 25.268v.003zm9.943 1.331c-4.04.256-8.139.604-11.367 1.863-2.732 1.064-6.399 3.747-4.284 7.886 1.798 3.518 5.79 2.674 10.502 2.665 3.388-.006 24.433.293 25.973-.304 3.339-1.3 4.261-5.685 1.483-8.356-3.82-3.672-15.471-4.183-22.307-3.75v-.004zm1.4 20.077c-4.936.218-14.972-.191-15.102 4.83-.055 2.122 2.41 3.471 4.06 1.963.68-.62.305-.873 1.396-1.152 2.285-.583 6.856-.707 9.397-.707.534.162.377 2.46 2.686 2.506 1.824.037 2.21-1.543 2.433-2.028.209-.452-.06-.275.395-.478 2.703 0 6.801.119 9.252.69 1.195.278.676.319 1.343 1.047 1.447 1.575 4.127.54 4.168-1.688.095-5.134-10.018-4.812-14.984-4.98l-.099-5.05H27.7l-.006 5.044.003.003zM51.124 40.51c1.065 1.055 1.75 2.792 1.775 4.968 2.457-1.36 4.116-5.47 4.632-8.565.247-1.47.142-2.88.345-4.278.59-.685 1.158-.583 1.833-1.604.488-.737.795-1.764.537-2.875-.676-2.9-3.324-2.874-5.702-2.874-3.814-.003-6.021 4.452-2.126 6.947.638.409.475-.003.499 1.018.032 1.514-.317 3.89-.824 5.264-.282.76-.76 1.4-.963 1.998h-.006zM2.47 32.475c.255 3.202.22 5.143 1.241 7.852 1.035 2.758 1.958 3.428 3.68 5.157.352-2.318.473-3.701 1.892-4.992-1.37-2.547-2.054-4.681-1.793-8.023 3.713-1.467 3.327-7.167-1.934-7.187l-1.419-.003c-4.443-.003-5.774 5.218-1.667 7.196zm27.09 35.722c-5.224 1.192-3.107 8.347 1.389 7.283 4.965-1.178 2.903-8.26-1.39-7.283zm15.775.237c-4.908 2.008-1.767 8.464 2.47 6.9 1.582-.582 3.038-2.52 2.252-4.684-.572-1.572-2.451-3.144-4.72-2.216h-.002zm-32.76 0c-4.864 1.97-1.79 8.481 2.468 6.904 1.58-.586 3.03-2.518 2.248-4.688-.572-1.577-2.445-3.138-4.716-2.216z" fill="#fff"/></svg>
